X:24
T:Stack of Wheat, The
S:Sean Gavin
R:hornpipe
M:C
L:1/8
K:G
BA | GEDE GABG | (3ABA GA Bdeg | gedB GABG | DBAG E2BA |
GEDE GABG | (3ABA GA Bdeg | gedB GABG | AGEF G2 :|
|:(3Bcd | edBd edgd | edBd e3f | gedB GABG | dBAG E2(3Bcd |
1 edBd edgd | edBd e3f | gedB GABG | AGEF G2 :| 
2 BA | GEDE GABG | (3ABA GA Bdeg | gedB GABG | AGEF G2 |

